static/images/team/luis/tribal.svg

<svg xmlns="http://www.w3.org/2000/svg" width="147" height="145" fill="none" viewBox="0 0 147 145"><g clip-path="url(#clip0)"><path fill="#FCDCD9" d="M116.33 60.61C116.33 69.14 116.2 77.26 116.39 85.38C116.47 88.87 115.07 90.22 111.76 90.24C94.3401 90.37 76.9201 90.54 59.5001 90.7C57.8401 90.71 56.0901 91.02 54.5301 90.61C53.3201 90.29 51.3001 89.62 51.2601 88.27C51.2201 86.82 53.4201 85.64 54.5801 85.57C62.5501 85.07 70.5401 84.78 78.5301 84.68C89.1701 84.55 99.8201 84.65 111.45 84.65C111.45 77.22 111.45 70.11 111.45 63C111.44 54.96 111.63 54.77 119.45 54.64C120.74 54.62 122.02 54.51 124.32 54.38C119.7 48.64 115.45 43.61 111.53 38.34C110.21 36.57 107.86 34.13 108.85 32.08C109.85 30.01 113.26 30.32 115.48 30.28C123.8 30.12 132.13 30.3 140.46 30.38C145.45 30.43 146.78 32.45 144.31 36.89C141.17 42.53 137.62 47.95 133.87 54.06C137.1 54.21 139.98 54.13 142.79 54.56C144.16 54.77 146.59 55.18 146.67 56.66C146.75 58.15 144.3 59.09 143.03 59.19C135.4 59.78 127.74 60.04 120.09 60.41C119.09 60.45 118.1 60.51 116.33 60.61ZM128.89 50.54C132.07 45.31 134.92 40.62 137.82 35.85C130.83 35.85 124.29 35.85 116.95 35.85C121.03 40.89 124.65 45.33 128.89 50.54Z"/><path fill="#FCDCD9" d="M37.96 0.560011C40.88 0.610011 43.2 1.52001 43.29 5.10001C43.51 13.92 43.92 22.74 44.01 31.56C44.06 36.73 42.24 37.84 37.19 37.83C27.08 37.8 16.96 38.33 6.84998 38.23C5.43998 38.22 2.86998 35.92 2.85998 34.66C2.70998 24.18 2.86998 13.69 3.43998 3.24001C3.49998 2.07001 6.65998 0.320011 8.50998 0.140011C13.13 -0.309989 32.8 0.470011 37.96 0.560011ZM8.43998 21.91C8.43998 24.9 8.43998 27.65 8.43998 30.99C18.46 30.99 28.27 30.99 38.11 30.99C38.11 27.94 38.11 24.91 38.11 21.91C28.04 21.91 18.33 21.91 8.43998 21.91ZM37.69 6.92001C27.87 6.92001 18.34 6.92001 8.44998 6.92001C8.44998 9.58001 8.44998 11.98 8.44998 15.46C15.89 15.46 23.13 15.38 30.37 15.48C38.6 15.6 38.6 15.67 37.69 6.92001Z"/><path fill="#FCDCD9" d="M28.5201 96.58C33.0701 104.84 37.5201 112.78 41.8301 120.79C44.5101 125.78 43.0401 128.4 37.4201 128.48C26.9501 128.62 16.4701 128.66 6.00007 128.5C4.51007 128.48 1.99007 127.97 1.55007 126.38C1.19007 125.08 13.7301 103.35 16.8901 95.97C12.4001 95.97 8.50007 96.19 4.65007 95.86C3.05007 95.72 0.150069 95.35 6.85058e-05 93.63C-0.149932 91.86 2.84007 90.65 4.30007 90.6C13.2701 90.33 22.2501 90.48 31.2301 90.49C34.3801 90.49 37.5901 90.13 40.6701 90.6C42.2201 90.84 45.0201 91.86 44.9701 93.63C44.9101 95.44 42.0001 96.27 40.3901 96.46C36.6401 96.87 32.8201 96.58 28.5201 96.58ZM36.5901 122.79C31.6701 114.36 27.3301 106.91 22.5501 98.71C18.6301 107.4 15.0801 115.29 11.7001 122.79C19.5601 122.79 27.4701 122.79 36.5901 122.79Z"/><path fill="#FCDCD9" d="M9.63989 58.65C17.9399 54.1 25.7299 49.75 33.5999 45.54C39.0599 42.62 41.3499 44 41.3999 50.04C41.4799 60.01 41.6899 69.99 41.5699 79.96C41.5499 81.82 41.4399 84.94 39.5499 85.53C37.9899 86 15.7999 73.19 9.10989 70.37C9.10989 74.79 9.29989 78.72 9.01989 82.62C8.90989 84.14 8.65989 86.81 7.03989 87.07C5.31989 87.35 3.73989 84.62 3.60989 83.25C3.10989 77.97 3.13989 72.64 3.14989 67.33C3.16989 60.35 3.19989 53.36 3.58989 46.4C3.66989 45.02 4.70989 42.42 6.34989 42.39C8.12989 42.35 9.30989 45.09 9.48989 46.6C9.94989 50.36 9.63989 54.21 9.63989 58.65ZM35.8499 75.45C35.8499 67.58 35.8499 59.67 35.8499 50.62C27.4299 55.51 19.9499 59.86 11.7399 64.63C20.3199 68.48 28.1199 71.98 35.8499 75.45Z"/><path fill="#FCDCD9" d="M95.2201 52.51C90.7201 48.4 87.1801 45.38 83.9101 42.08C82.7601 40.91 81.2701 38.57 81.7301 37.66C82.4601 36.21 84.5701 35.16 86.3001 34.61C88.3001 33.98 90.5401 34.08 93.7601 33.75C89.9601 30.26 86.6801 27.41 83.5801 24.37C80.2201 21.06 80.7201 19.02 85.2401 17.88C88.1201 17.16 91.1301 16.98 95.3201 16.38C91.2401 12.79 87.6901 9.93998 84.5101 6.70998C83.4301 5.60998 81.6501 3.26998 82.7401 1.95998C83.7701 0.719984 86.3501 1.90998 87.4301 2.78998C92.2101 6.64998 96.8301 10.75 101.3 14.96C104.28 17.76 103.69 19.88 99.7501 20.93C96.8801 21.69 93.8901 22.01 90.0101 22.7C93.6801 26.31 96.9901 29.4 100.1 32.67C103.41 36.14 102.8 38.05 98.1601 38.95C95.9101 39.39 93.5901 39.49 90.1801 39.87C94.7401 44.13 98.8001 47.7 102.55 51.57C103.88 52.94 106.2 55.01 105.35 56.81C104.58 58.45 101.81 57.9 100.04 57.93C85.2601 58.17 70.4701 58.39 55.6901 58.3C54.0001 58.29 50.6001 57.26 50.6301 55.27C50.6601 53.44 53.7901 52.67 55.3901 52.64C68.1701 52.41 80.9401 52.51 95.2201 52.51Z"/><path fill="#FCDCD9" d="M99.0199 120.57C94.5899 114.81 90.2199 109.37 86.1599 103.71C85.1299 102.27 84.4499 99.96 84.8599 98.37C85.0999 97.44 87.7999 96.7 89.4099 96.65C96.5599 96.42 103.72 96.46 110.88 96.43C114.65 96.42 116.11 98.36 114.62 101.8C112.45 106.83 109.7 111.64 107.84 116.77C107.01 119.07 107.09 122.18 107.92 124.5C109.65 129.33 112.24 133.85 114.33 138.56C116.18 142.72 115.01 144.64 110.63 144.68C103.47 144.74 96.2999 144.76 89.1399 144.59C87.6599 144.55 85.1499 143.82 84.9599 142.99C84.5799 141.32 84.9399 138.98 85.9299 137.59C89.9999 131.9 94.4199 126.48 99.0199 120.57ZM101.87 126.04C98.3799 130.59 95.3099 134.59 91.7499 139.24C97.6899 139.24 102.86 139.24 108.43 139.24C106.32 134.99 104.29 130.9 101.87 126.04ZM91.4699 101.6C95.3199 106.53 98.4699 110.56 101.91 114.97C104.24 110.25 106.33 106.04 108.52 101.6C102.8 101.6 97.5799 101.6 91.4699 101.6Z"/><path fill="#FCDCD9" d="M54.1999 79.38C52.7099 79.29 49.8599 78.3 49.8699 76.55C49.8799 74.9 52.5499 74.08 54.0099 73.92C57.9599 73.48 61.9699 73.58 65.9499 73.55C77.5599 73.46 89.1699 73.29 100.78 73.45C102.47 73.47 105.82 74.09 105.81 75.99C105.8 77.81 102.6 78.36 100.97 78.4C91.1999 78.63 59.9899 79.71 54.1999 79.38Z"/><path fill="#FCDCD9" d="M56.19 68.66C55.19 68.66 54.07 68.88 53.23 68.5C52.02 67.95 49.94 67.5 49.91 66.14C49.88 64.77 51.96 63.79 53.11 63.64C58.21 63 63.36 62.48 68.5 62.42C79.3 62.28 90.1 62.35 100.9 62.63C102.58 62.67 105.84 63.33 105.87 65.22C105.91 67.14 102.65 67.85 100.91 68.04C96.98 68.47 67.12 68.67 56.19 68.66Z"/><path fill="#FCDCD9" d="M128.82 89.67C134.44 94.39 139.57 98.56 144.49 102.97C145.46 103.84 146.94 105.82 146.1 107.02C145.16 108.36 142.3 107.65 141.26 106.85C134.54 101.67 128 96.27 121.59 90.71C120.55 89.81 120.08 87.79 120.13 86.32C120.15 85.63 122.01 84.51 123.09 84.44C129.56 83.99 136.04 83.67 142.52 83.61C143.87 83.6 146.46 84.04 146.59 85.55C146.72 87.02 144.32 87.87 143.03 88.09C138.63 88.8 134.15 89.11 128.82 89.67Z"/><path fill="#FCDCD9" d="M50.56 6.10998C50.6 4.96998 51.25 2.83998 52.57 2.75998C53.9 2.67998 54.98 4.82998 55 5.88998C55.2 18.7 55.24 31.51 55.1 44.32C55.09 45.3 53.88 47.33 52.57 47.24C51.09 47.14 50.23 44.81 50.18 43.54C49.93 37.23 50.36 12.26 50.56 6.10998Z"/><path fill="#FCDCD9" d="M66.25 24.9C66.25 30.87 66.43 36.85 66.12 42.8C66.04 44.31 65.21 47.3 63.47 47.22C61.86 47.14 61.41 44.36 61.39 42.91C61.2 30.81 61.16 18.71 61.33 6.60998C61.35 5.30998 62.3 2.68998 63.86 2.75998C65.48 2.82998 66.1 5.54998 66.17 6.99998C66.43 12.96 66.28 18.94 66.28 24.9C66.27 24.9 66.26 24.9 66.25 24.9Z"/><path fill="#FCDCD9" d="M71.3001 7.78997C71.3701 6.09997 71.4301 2.92997 73.2201 2.79997C75.1301 2.64997 75.9001 6.04997 76.0001 7.75997C76.3801 13.9 76.4301 37.56 76.1401 43.21C76.0701 44.6 75.1801 47.27 73.5701 47.25C71.9901 47.23 71.1801 44.61 71.1201 43.24C70.8501 37.09 71.0501 13.44 71.3001 7.78997Z"/><path fill="#FCDCD9" d="M143.59 19.91C144.62 19.96 146.45 20.93 146.6 21.8C146.75 22.66 145.44 24.08 144.51 24.61C143.43 25.23 141.96 25.35 140.65 25.37C132.5 25.52 124.35 25.75 116.21 25.54C114.6 25.5 111.34 24.07 111.44 22.68C111.54 21.35 114.58 20.6 116.25 20.4C120.7 19.87 125.2 19.82 129.68 19.58C129.68 19.67 138.96 19.71 143.59 19.91Z"/><path fill="#FCDCD9" d="M142.88 1.03002C144.2 1.12002 146.53 1.74002 146.71 3.21002C146.89 4.72002 144.58 6.24002 143.46 6.27002C133.82 6.61002 124.17 6.67002 114.52 6.59002C113.63 6.58002 111.85 5.39002 111.88 4.18002C111.91 2.82002 113.89 1.66002 114.96 1.60002C120.09 1.33002 138.74 0.750017 142.88 1.03002Z"/><path fill="#FCDCD9" d="M115.56 16.27C114.07 16.14 111.27 14.63 111.3 13.34C111.33 12.13 114.05 10.84 115.45 10.81C124.6 10.63 133.75 10.69 142.89 10.94C144.18 10.98 146.72 12.14 146.71 13.25C146.69 14.47 143.95 15.62 142.49 15.73C138.03 16.07 120.02 16.67 115.56 16.27Z"/><path fill="#FCDCD9" d="M124.03 98.35C125.42 98.35 126.18 99.72 127.05 100.45C132.99 105.48 138.97 110.46 144.76 115.66C145.72 116.52 147.19 118.58 146.29 119.75C145.31 121.02 142.59 120.1 141.58 119.27C135.21 113.99 129.05 108.45 122.91 102.89C122.2 102.25 121.7 100.93 121.8 100.01C121.86 99.4 123 98.35 124.03 98.35Z"/><path fill="#FCDCD9" d="M131.07 74.74C135.23 74.54 139.38 74.21 143.53 74.23C144.57 74.23 146.49 74.74 146.64 75.93C146.81 77.23 144.83 78.49 143.83 78.57C137.04 79.12 130.22 79.44 123.4 79.55C122.32 79.57 120.18 78.75 120.12 77.43C120.06 75.95 122.31 74.97 123.59 74.75C126.01 74.32 128.57 74.62 131.07 74.62C131.07 74.66 131.07 74.7 131.07 74.74Z"/><path fill="#FCDCD9" d="M133.1 69.75C130.12 69.75 127.12 69.97 124.19 69.65C122.88 69.51 120.53 68.96 120.45 67.51C120.36 66.03 122.77 64.98 123.99 64.91C130.42 64.56 136.87 64.5 143.31 64.62C144.44 64.64 146.64 65.35 146.66 66.68C146.68 68.15 144.31 68.89 143 69.08C139.74 69.55 136.41 69.48 133.11 69.62C133.09 69.66 133.1 69.71 133.1 69.75Z"/><path fill="#FCDCD9" d="M100.36 0.0999747C102.48 0.0499747 103.29 2.80997 103.24 3.79997C103.19 4.75997 101.49 6.32997 100.48 6.35997C99.4901 6.38998 97.7301 4.86997 97.6501 3.91997C97.5701 2.91997 98.2401 0.149975 100.36 0.0999747Z"/></g><defs><clipPath id="clip0"><rect width="146.72" height="144.71" fill="#fff"/></clipPath></defs></svg>

<svg xmlns="http://www.w3.org/2000/svg" width="147" height="145" fill="none"><g clip-path="url(#clip0)" fill="#FCDCD9"><path d="M116.33 60.61c0 8.53-.13 16.65.06 24.77.08 3.49-1.32 4.84-4.63 4.86-17.42.13-34.84.3-52.26.46-1.66.01-3.41.32-4.97-.09-1.21-.32-3.23-.99-3.27-2.34-.04-1.45 2.16-2.63 3.32-2.7 7.97-.5 15.96-.79 23.95-.89 10.64-.13 21.29-.03 32.92-.03V63c-.01-8.04.18-8.23 8-8.36 1.29-.02 2.57-.13 4.87-.26-4.62-5.74-8.87-10.77-12.79-16.04-1.32-1.77-3.67-4.21-2.68-6.26 1-2.07 4.41-1.76 6.63-1.8 8.32-.16 16.65.02 24.98.1 4.99.05 6.32 2.07 3.85 6.51-3.14 5.64-6.69 11.06-10.44 17.17 3.23.15 6.11.07 8.92.5 1.37.21 3.8.62 3.88 2.1.08 1.49-2.37 2.43-3.64 2.53-7.63.59-15.29.85-22.94 1.22-1 .04-1.99.1-3.76.2zm12.56-10.07l8.93-14.69h-20.87c4.08 5.04 7.7 9.48 11.94 14.69zM37.96.56c2.92.05 5.24.96 5.33 4.54.22 8.82.63 17.64.72 26.46.05 5.17-1.77 6.28-6.82 6.27-10.11-.03-20.23.5-30.34.4-1.41-.01-3.98-2.31-3.99-3.57-.15-10.48.01-20.97.58-31.42C3.5 2.07 6.66.32 8.51.14c4.62-.45 24.29.33 29.45.42zM8.44 21.91v9.08h29.67v-9.08H8.44zM37.69 6.92H8.45v8.54c7.44 0 14.68-.08 21.92.02 8.23.12 8.23.19 7.32-8.56zm-9.17 89.66c4.55 8.26 9 16.2 13.31 24.21 2.68 4.99 1.21 7.61-4.41 7.69-10.47.14-20.95.18-31.42.02-1.49-.02-4.01-.53-4.45-2.12-.36-1.3 12.18-23.03 15.34-30.41-4.49 0-8.39.22-12.24-.11-1.6-.14-4.5-.51-4.65-2.23-.15-1.77 2.84-2.98 4.3-3.03 8.97-.27 17.95-.12 26.93-.11 3.15 0 6.36-.36 9.44.11 1.55.24 4.35 1.26 4.3 3.03-.06 1.81-2.97 2.64-4.58 2.83-3.75.41-7.57.12-11.87.12zm8.07 26.21c-4.92-8.43-9.26-15.88-14.04-24.08-3.92 8.69-7.47 16.58-10.85 24.08h24.89zM9.64 58.65c8.3-4.55 16.09-8.9 23.96-13.11 5.46-2.92 7.75-1.54 7.8 4.5.08 9.97.29 19.95.17 29.92-.02 1.86-.13 4.98-2.02 5.57C37.99 86 15.8 73.19 9.11 70.37c0 4.42.19 8.35-.09 12.25-.11 1.52-.36 4.19-1.98 4.45-1.72.28-3.3-2.45-3.43-3.82-.5-5.28-.47-10.61-.46-15.92.02-6.98.05-13.97.44-20.93.08-1.38 1.12-3.98 2.76-4.01 1.78-.04 2.96 2.7 3.14 4.21.46 3.76.15 7.61.15 12.05zm26.21 16.8V50.62c-8.42 4.89-15.9 9.24-24.11 14.01l24.11 10.82z"/><path d="M95.22 52.51c-4.5-4.11-8.04-7.13-11.31-10.43-1.15-1.17-2.64-3.51-2.18-4.42.73-1.45 2.84-2.5 4.57-3.05 2-.63 4.24-.53 7.46-.86-3.8-3.49-7.08-6.34-10.18-9.38-3.36-3.31-2.86-5.35 1.66-6.49 2.88-.72 5.89-.9 10.08-1.5-4.08-3.59-7.63-6.44-10.81-9.67-1.08-1.1-2.86-3.44-1.77-4.75 1.03-1.24 3.61-.05 4.69.83 4.78 3.86 9.4 7.96 13.87 12.17 2.98 2.8 2.39 4.92-1.55 5.97-2.87.76-5.86 1.08-9.74 1.77 3.67 3.61 6.98 6.7 10.09 9.97 3.31 3.47 2.7 5.38-1.94 6.28-2.25.44-4.57.54-7.98.92 4.56 4.26 8.62 7.83 12.37 11.7 1.33 1.37 3.65 3.44 2.8 5.24-.77 1.64-3.54 1.09-5.31 1.12-14.78.24-29.57.46-44.35.37-1.69-.01-5.09-1.04-5.06-3.03.03-1.83 3.16-2.6 4.76-2.63 12.78-.23 25.55-.13 39.83-.13zm3.8 68.06c-4.43-5.76-8.8-11.2-12.86-16.86-1.03-1.44-1.71-3.75-1.3-5.34.24-.93 2.94-1.67 4.55-1.72 7.15-.23 14.31-.19 21.47-.22 3.77-.01 5.23 1.93 3.74 5.37-2.17 5.03-4.92 9.84-6.78 14.97-.83 2.3-.75 5.41.08 7.73 1.73 4.83 4.32 9.35 6.41 14.06 1.85 4.16.68 6.08-3.7 6.12-7.16.06-14.33.08-21.49-.09-1.48-.04-3.99-.77-4.18-1.6-.38-1.67-.02-4.01.97-5.4 4.07-5.69 8.49-11.11 13.09-17.02zm2.85 5.47c-3.49 4.55-6.56 8.55-10.12 13.2h16.68c-2.11-4.25-4.14-8.34-6.56-13.2zm-10.4-24.44c3.85 4.93 7 8.96 10.44 13.37 2.33-4.72 4.42-8.93 6.61-13.37H91.47zM54.2 79.38c-1.49-.09-4.34-1.08-4.33-2.83.01-1.65 2.68-2.47 4.14-2.63 3.95-.44 7.96-.34 11.94-.37 11.61-.09 23.22-.26 34.83-.1 1.69.02 5.04.64 5.03 2.54-.01 1.82-3.21 2.37-4.84 2.41-9.77.23-40.98 1.31-46.77.98zm1.99-10.72c-1 0-2.12.22-2.96-.16-1.21-.55-3.29-1-3.32-2.36-.03-1.37 2.05-2.35 3.2-2.5 5.1-.64 10.25-1.16 15.39-1.22 10.8-.14 21.6-.07 32.4.21 1.68.04 4.94.7 4.97 2.59.04 1.92-3.22 2.63-4.96 2.82-3.93.43-33.79.63-44.72.62zm72.63 21.01c5.62 4.72 10.75 8.89 15.67 13.3.97.87 2.45 2.85 1.61 4.05-.94 1.34-3.8.63-4.84-.17-6.72-5.18-13.26-10.58-19.67-16.14-1.04-.9-1.51-2.92-1.46-4.39.02-.69 1.88-1.81 2.96-1.88 6.47-.45 12.95-.77 19.43-.83 1.35-.01 3.94.43 4.07 1.94.13 1.47-2.27 2.32-3.56 2.54-4.4.71-8.88 1.02-14.21 1.58zM50.56 6.11c.04-1.14.69-3.27 2.01-3.35 1.33-.08 2.41 2.07 2.43 3.13.2 12.81.24 25.62.1 38.43-.01.98-1.22 3.01-2.53 2.92-1.48-.1-2.34-2.43-2.39-3.7-.25-6.31.18-31.28.38-37.43z"/><path d="M66.25 24.9c0 5.97.18 11.95-.13 17.9-.08 1.51-.91 4.5-2.65 4.42-1.61-.08-2.06-2.86-2.08-4.31-.19-12.1-.23-24.2-.06-36.3.02-1.3.97-3.92 2.53-3.85 1.62.07 2.24 2.79 2.31 4.24.26 5.96.11 11.94.11 17.9h-.03zM71.3 7.79c.07-1.69.13-4.86 1.92-4.99 1.91-.15 2.68 3.25 2.78 4.96.38 6.14.43 29.8.14 35.45-.07 1.39-.96 4.06-2.57 4.04-1.58-.02-2.39-2.64-2.45-4.01-.27-6.15-.07-29.8.18-35.45zm72.29 12.12c1.03.05 2.86 1.02 3.01 1.89.15.86-1.16 2.28-2.09 2.81-1.08.62-2.55.74-3.86.76-8.15.15-16.3.38-24.44.17-1.61-.04-4.87-1.47-4.77-2.86.1-1.33 3.14-2.08 4.81-2.28 4.45-.53 8.95-.58 13.43-.82 0 .09 9.28.13 13.91.33zm-.71-18.88c1.32.09 3.65.71 3.83 2.18.18 1.51-2.13 3.03-3.25 3.06-9.64.34-19.29.4-28.94.32-.89-.01-2.67-1.2-2.64-2.41.03-1.36 2.01-2.52 3.08-2.58 5.13-.27 23.78-.85 27.92-.57zm-27.32 15.24c-1.49-.13-4.29-1.64-4.26-2.93.03-1.21 2.75-2.5 4.15-2.53 9.15-.18 18.3-.12 27.44.13 1.29.04 3.83 1.2 3.82 2.31-.02 1.22-2.76 2.37-4.22 2.48-4.46.34-22.47.94-26.93.54zm8.47 82.08c1.39 0 2.15 1.37 3.02 2.1 5.94 5.03 11.92 10.01 17.71 15.21.96.86 2.43 2.92 1.53 4.09-.98 1.27-3.7.35-4.71-.48-6.37-5.28-12.53-10.82-18.67-16.38-.71-.64-1.21-1.96-1.11-2.88.06-.61 1.2-1.66 2.23-1.66zm7.04-23.61c4.16-.2 8.31-.53 12.46-.51 1.04 0 2.96.51 3.11 1.7.17 1.3-1.81 2.56-2.81 2.64-6.79.55-13.61.87-20.43.98-1.08.02-3.22-.8-3.28-2.12-.06-1.48 2.19-2.46 3.47-2.68 2.42-.43 4.98-.13 7.48-.13v.12zm2.03-4.99c-2.98 0-5.98.22-8.91-.1-1.31-.14-3.66-.69-3.74-2.14-.09-1.48 2.32-2.53 3.54-2.6 6.43-.35 12.88-.41 19.32-.29 1.13.02 3.33.73 3.35 2.06.02 1.47-2.35 2.21-3.66 2.4-3.26.47-6.59.4-9.89.54-.02.04-.01.09-.01.13zM100.36.1c2.12-.05 2.93 2.71 2.88 3.7-.05.96-1.75 2.53-2.76 2.56-.99.03-2.75-1.49-2.83-2.44-.08-1 .59-3.77 2.71-3.82z"/></g><defs><clipPath id="clip0"><path fill="#fff" d="M0 0H146.72V144.71H0z"/></clipPath></defs></svg>
